X: 40132
T: Tie The Ribbons
R: reel
M: 4/4
K: Edorian
BGEF GBAG|FGAG FDFA|BGEF G2 ef|gefd Beed|
BGEF GBAG|FGAG FDFA|BGEF G2 ef|gefd Be e2||
g3a bgeg|f3g afdf|g3a bgef|gefd Beef|
gfga bgeg|f3g afdf|gabg fgaf|gfed Be e2||

